X: 21143
M: 6/8
L: 1/8
K: G
V: 1 name="3"
(B/A/) |\
K: =f
z/(G//A//B//) |\
ccc e2c | d2d g2z//G//A//B// | ccc e2c | d3 zGG |\
ddd d2e | f2f d3 | ccc d2B | c3 "^D.C."z2 |]


